components/Icon/svg/earth.svg

<svg width="32" height="32" viewBox="0 0 32 32" fill="none" xmlns="http://www.w3.org/2000/svg">
<path fill-rule="evenodd" clip-rule="evenodd" d="M16 30.4C10.52 30.4 5.744 27.3216 3.312 22.8048C3.7312 22.0064 4.5088 20.24 4.1456 18.6944C4.1712 18.5392 4.4352 18.1664 4.5936 17.9392C5.0272 17.3232 5.5664 16.5584 5.1664 15.7472C4.8864 15.1776 4.136 14.7936 2.6608 14.4608C2.3184 14.384 1.9856 14.3216 1.7024 14.272C2.56 7.144 8.6432 1.6016 15.9984 1.6016C18.5232 1.6016 20.8976 2.256 22.9616 3.4016C22.4512 3.1792 21.9888 3.144 21.6176 3.144C21.4144 3.144 21.2128 3.1552 21.0176 3.168C20.8272 3.1792 20.6304 3.1904 20.4352 3.1904C19.9808 3.1904 19.4144 3.136 18.656 2.7312C17.4976 2.1152 16.6304 1.8512 15.7568 1.8512C14.6752 1.8512 13.5776 2.2704 12.088 3.2528C10.8 4.1024 9.8304 5.4016 9.3568 6.9136C8.8944 8.3872 8.944 9.8976 9.496 11.16C10.1472 12.6512 11.0064 13.3168 12.2832 13.3168C12.5984 13.3168 12.9056 13.28 13.2304 13.2416C13.5584 13.2032 13.896 13.1632 14.2464 13.1632C14.68 13.1632 15.0624 13.224 15.448 13.352C16.1504 13.5872 16.6688 14.3744 17.0336 15.7584C17.3984 17.1424 17.536 18.9024 17.6592 20.456C17.7616 21.752 17.8576 22.9744 18.0704 23.8976C18.2 24.4576 18.3664 24.8832 18.5824 25.1984C18.904 25.6688 19.3648 25.928 19.88 25.928C21.2944 25.928 22.424 25.472 23.2384 24.5728C23.9152 23.8256 24.2608 22.9024 24.5392 22.16C24.7024 21.7232 24.872 21.2704 25.0368 21.0848C26.856 19.0416 26.6688 17.3584 26.5312 16.128C26.4304 15.2256 26.4288 14.9056 26.7936 14.5728C27.1328 14.264 27.4416 13.9872 27.7136 13.744C28.2944 13.2256 28.7136 12.8512 29.008 12.5312C29.2096 12.3104 29.6832 11.7936 29.552 11.1472C29.5504 11.1408 29.5488 11.136 29.5488 11.1296C30.0976 12.6512 30.3968 14.2912 30.3968 16C30.3968 23.9408 23.9376 30.4 15.9968 30.4H16ZM1.6016 15.8768C1.7744 15.9072 1.96 15.944 2.152 15.984C3.0512 16.176 3.472 16.3488 3.656 16.4464C3.5712 16.6112 3.4 16.8544 3.2864 17.0144C2.8912 17.576 2.3984 18.2752 2.5856 19.0448C2.712 19.5664 2.6048 20.2016 2.4208 20.7904C1.8896 19.2896 1.6 17.6768 1.6 15.9968C1.6 15.9552 1.6016 15.9152 1.6016 15.8736V15.8768ZM24.9456 16.3056C25.0672 17.3888 25.192 18.5104 23.8464 20.0208C23.4832 20.4288 23.2704 20.9968 23.0448 21.5984C22.5232 22.992 22.0304 24.3088 19.9312 24.328C19.872 24.2576 19.7056 23.992 19.5568 23.1552C19.4208 22.384 19.3424 21.3856 19.2576 20.3312C19.1296 18.712 18.984 16.8752 18.584 15.352C18.072 13.4048 17.2128 12.2544 15.9584 11.8336C15.4112 11.6528 14.8512 11.5632 14.2496 11.5632C13.8048 11.5632 13.4016 11.6112 13.0464 11.6528C12.7696 11.6848 12.5072 11.7168 12.2864 11.7168C11.912 11.7168 11.488 11.7168 10.9648 10.52C10.2144 8.8 10.768 6.0432 12.9712 4.5888C14.1792 3.792 15.0128 3.4512 15.7584 3.4512C16.3536 3.4512 16.9952 3.6576 17.9056 4.144C18.9808 4.7168 19.824 4.7904 20.4384 4.7904C20.6816 4.7904 20.9024 4.7776 21.1152 4.7664C21.2944 4.7536 21.4624 4.744 21.6192 4.744C21.9712 4.744 22.256 4.7904 22.5904 5.0176C23.2064 5.4384 23.5264 6.368 23.864 7.3504C24.376 8.8416 24.9568 10.5312 26.8 11.1584C27.048 11.2432 27.4736 11.3872 27.776 11.5136C27.5152 11.7824 27.08 12.1712 26.6528 12.552C26.3776 12.7984 26.0656 13.0768 25.72 13.392C24.7216 14.3024 24.84 15.368 24.9456 16.3072V16.3056ZM29.4352 10.8176C29.1232 10.256 28.3392 9.9888 27.3152 9.64C26.216 9.2656 25.8272 8.136 25.3776 6.8272C24.9872 5.6912 24.584 4.5184 23.6256 3.7888C26.248 5.432 28.304 7.8976 29.4352 10.8176V10.8176ZM27.3136 4.6864C24.2912 1.664 20.2736 0 16 0C11.7264 0 7.7088 1.664 4.6864 4.6864C1.664 7.7088 0 11.7264 0 16C0 20.2736 1.664 24.2912 4.6864 27.3136C7.7088 30.336 11.7264 32 16 32C20.2736 32 24.2912 30.336 27.3136 27.3136C30.336 24.2912 32 20.2736 32 16C32 11.7264 30.336 7.7088 27.3136 4.6864V4.6864Z" fill="currentColor"/>
</svg>

<svg xmlns="http://www.w3.org/2000/svg" width="32" height="32" viewBox="0 0 32 32">
  <path fill="currentColor" fill-rule="evenodd" d="M16 30.4c-5.48 0-10.256-3.078-12.688-7.595.42-.799 1.197-2.565.834-4.11.025-.156.29-.529.448-.756.433-.616.972-1.38.572-2.192-.28-.57-1.03-.953-2.505-1.286-.343-.077-.675-.14-.959-.189.858-7.128 6.941-12.67 14.296-12.67 2.525 0 4.9.654 6.964 1.8a3.253 3.253 0 0 0-1.344-.258 9.17 9.17 0 0 0-.6.024c-.19.011-.388.022-.583.022-.454 0-1.02-.054-1.779-.459-1.158-.616-2.026-.88-2.9-.88-1.08 0-2.178.42-3.668 1.402a6.826 6.826 0 0 0-2.731 3.66c-.463 1.474-.413 2.985.139 4.247.651 1.491 1.51 2.157 2.787 2.157.315 0 .623-.037.947-.075a8.535 8.535 0 0 1 1.016-.079c.434 0 .816.061 1.202.189.702.235 1.22 1.022 1.586 2.406.364 1.384.502 3.144.625 4.698.103 1.296.199 2.518.411 3.442.13.56.296.985.512 1.3.322.47.783.73 1.298.73 1.414 0 2.544-.456 3.358-1.355.677-.747 1.023-1.67 1.301-2.413.163-.437.333-.89.498-1.075 1.819-2.043 1.632-3.727 1.494-4.957-.1-.902-.102-1.222.263-1.555.339-.309.648-.586.92-.829.58-.518 1-.893 1.294-1.213.202-.22.675-.737.544-1.384a.05.05 0 0 1-.003-.017c.549 1.521.848 3.161.848 4.87 0 7.94-6.46 14.4-14.4 14.4H16ZM1.602 15.877c.172.03.358.067.55.107.9.192 1.32.365 1.504.462a5.725 5.725 0 0 1-.37.568c-.395.562-.888 1.261-.7 2.03.126.522.019 1.158-.165 1.746a14.335 14.335 0 0 1-.821-4.793l.002-.123v.003Zm23.344.429c.121 1.083.246 2.204-1.1 3.715-.363.408-.576.976-.801 1.577-.522 1.394-1.015 2.71-3.114 2.73-.059-.07-.225-.336-.374-1.173-.136-.771-.215-1.77-.3-2.824-.127-1.619-.273-3.456-.673-4.979-.512-1.947-1.371-3.098-2.626-3.518a5.367 5.367 0 0 0-1.708-.27c-.445 0-.848.047-1.204.089-.276.032-.539.064-.76.064-.374 0-.798 0-1.321-1.197-.75-1.72-.197-4.477 2.006-5.931 1.208-.797 2.042-1.138 2.787-1.138.596 0 1.237.207 2.148.693 1.075.573 1.918.646 2.532.646.244 0 .464-.012.677-.024.18-.012.347-.022.504-.022.352 0 .637.046.971.274.616.42.936 1.35 1.274 2.332.512 1.492 1.093 3.181 2.936 3.808.248.085.674.23.976.356-.26.268-.696.657-1.123 1.038-.275.246-.587.525-.933.84-.998.91-.88 1.976-.774 2.915v-.001Zm4.49-5.488c-.313-.562-1.097-.83-2.12-1.178-1.1-.374-1.489-1.504-1.938-2.813-.39-1.136-.794-2.309-1.752-3.038a14.49 14.49 0 0 1 5.81 7.029Zm-2.122-6.132A15.894 15.894 0 0 0 16 0 15.894 15.894 0 0 0 4.686 4.686 15.894 15.894 0 0 0 0 16c0 4.274 1.664 8.291 4.686 11.314A15.894 15.894 0 0 0 16 32c4.274 0 8.291-1.664 11.314-4.686A15.894 15.894 0 0 0 32 16c0-4.274-1.664-8.291-4.686-11.314Z"/>
</svg>
